img/rectangle-13.svg

<svg fill="none" height="17" viewBox="0 0 110 17" width="110" xmlns="http://www.w3.org/2000/svg"><path d="m2.71859.373217c-.9837-.157393-1.87484.602494-1.87484 1.598713l-.000001 12.64837c0 .9962.891131 1.7561 1.874841 1.5987l20.83941-3.3343c.0846-.0135.1701-.0203.2558-.0203h81.1862c2.523 0 4.569-2.0453 4.569-4.56827 0-2.52299-2.046-4.56827-4.569-4.56827h-81.1862c-.0857 0-.1712-.0068-.2558-.02034z" fill="#e6e6e6"/></svg>

<svg width="110" height="17" viewBox="0 0 110 17" fill="none" xmlns="http://www.w3.org/2000/svg">
<path d="M2.71859 0.373217C1.73489 0.215824 0.84375 0.975711 0.84375 1.97193L0.843749 14.6203C0.843749 15.6165 1.73488 16.3764 2.71859 16.219L23.558 12.8847C23.6426 12.8712 23.7281 12.8644 23.8138 12.8644L105 12.8644C107.523 12.8644 109.569 10.8191 109.569 8.29613C109.569 5.77314 107.523 3.72786 105 3.72786L23.8138 3.72786C23.7281 3.72786 23.6426 3.72106 23.558 3.70752L2.71859 0.373217Z" fill="#E6E6E6"/>
</svg>
